Sources/FrostedUI/Resources/Icons.xcassets/whopLogo32.imageset/whop-logo-32.svg

<svg width="32" height="32" viewBox="0 0 32 32" fill="none" xmlns="http://www.w3.org/2000/svg" data-fui-icon="true">
  <path
    d="M26.3887 8.82587C27.7977 8.82587 29.2366 9.87368 30 10.9245H29.9873L18.9609 21.9499C17.3286 23.5821 14.6567 23.5822 13.0244 21.9499L11.9697 20.8952L21.9375 10.9245C21.9536 10.9043 22.3129 10.5538 22.3203 10.5466C23.2802 9.63354 24.5487 8.82597 26.3887 8.82587ZM16.4062 8.82587C17.8153 8.82587 19.2542 9.87368 20.0176 10.9245L11.0098 19.9343L6.98438 15.9089L11.9678 10.9245C11.9862 10.9012 12.3313 10.5532 12.3379 10.5466C13.2978 9.63353 14.5663 8.82596 16.4062 8.82587ZM6.45117 8.82587C7.85951 8.82587 9.29909 9.87367 10.0625 10.9245L6.03125 14.9567L2 10.9245C2.00248 10.9069 2.37696 10.5521 2.38281 10.5466C3.34273 9.63353 4.61115 8.82594 6.45117 8.82587Z"
    fill="currentColor"
  />
</svg>

<svg xmlns="http://www.w3.org/2000/svg" width="32" height="32" fill="none" data-fui-icon="true" viewBox="0 0 32 32"><path fill="currentColor" d="M26.389 8.826c1.409 0 2.848 1.048 3.611 2.098h-.013L18.961 21.95a4.21 4.21 0 0 1-5.937 0l-1.054-1.055 9.968-9.97c.016-.02.375-.371.382-.378.96-.913 2.229-1.721 4.069-1.721m-9.983 0c1.41 0 2.848 1.048 3.612 2.098l-9.008 9.01-4.026-4.025 4.984-4.985c.018-.023.363-.37.37-.377.96-.913 2.228-1.721 4.068-1.721m-9.955 0c1.409 0 2.848 1.048 3.612 2.098L6.03 14.958 2 10.924c.002-.017.377-.372.383-.377.96-.913 2.228-1.721 4.068-1.721"/></svg>
